website/src/static/table/limitcell.svg

<svg width="144" height="80" viewBox="0 0 144 80" fill="none" xmlns="http://www.w3.org/2000/svg">
<rect width="144" height="80" fill="white"/>
<mask id="path-1-inside-1_773_70850" fill="white">
<path d="M80 0H144V40H80V0Z"/>
</mask>
<path d="M80 0H144V40H80V0Z" fill="white"/>
<path d="M92.5284 16.4062V15.2727H99.2827V16.4062H96.5597V24H95.2472V16.4062H92.5284ZM100.775 24V15.2727H102.092V19.0653H106.443V15.2727H107.764V24H106.443V20.1946H102.092V24H100.775Z" fill="#191B23"/>
<path d="M144 39H80V41H144V39Z" fill="#E0E1E9" mask="url(#path-1-inside-1_773_70850)"/>
<mask id="path-4-inside-2_773_70850" fill="white">
<path d="M0 0H80V40H0V0Z"/>
</mask>
<path d="M0 0H80V40H0V0Z" fill="white"/>
<path d="M12.5284 16.4062V15.2727H19.2827V16.4062H16.5597V24H15.2472V16.4062H12.5284ZM20.7752 24V15.2727H22.092V19.0653H26.4428V15.2727H27.7638V24H26.4428V20.1946H22.092V24H20.7752Z" fill="#191B23"/>
<path d="M80 39H0V41H80V39Z" fill="#E0E1E9" mask="url(#path-4-inside-2_773_70850)"/>
<mask id="path-7-inside-3_773_70850" fill="white">
<path d="M0 40H80V80H0V40Z"/>
</mask>
<path d="M0 40H80V80H0V40Z" fill="white"/>
<rect x="8" y="52" width="64" height="8" rx="4" fill="#E0E1E9" fill-opacity="0.8"/>
<path d="M80 79H0V81H80V79Z" fill="#E0E1E9" mask="url(#path-7-inside-3_773_70850)"/>
<mask id="path-10-inside-4_773_70850" fill="white">
<path d="M80 40H144V80H80V40Z"/>
</mask>
<path d="M80 40H144V80H80V40Z" fill="white"/>
<path fill-rule="evenodd" clip-rule="evenodd" d="M116.042 57.0115V58.0845C116.555 58.0971 117.045 58.3059 117.409 58.6677C117.773 59.0296 117.985 59.5172 118 60.0301V63.0387C117.987 64.0939 117.558 65.1014 116.806 65.8429C116.054 66.5843 115.04 67.0001 113.983 67H110.017C108.96 67.0001 107.946 66.5843 107.194 65.8429C106.442 65.1014 106.013 64.0939 106 63.0387V60.0903C106 59.5583 106.212 59.0481 106.588 58.672C106.965 58.2958 107.476 58.0845 108.008 58.0845V57.0115C108.008 55.9476 108.432 54.9272 109.185 54.1749C109.938 53.4226 110.96 53 112.025 53C113.09 53 114.112 53.4226 114.865 54.1749C115.619 54.9272 116.042 55.9476 116.042 57.0115ZM113.445 55.5932C113.069 55.217 112.558 55.0057 112.025 55.0057C111.492 55.0057 110.982 55.217 110.605 55.5932C110.228 55.9693 110.017 56.4795 110.017 57.0115V58.0845H114.033V57.0115C114.033 56.4795 113.822 55.9693 113.445 55.5932ZM115.436 64.4146C115.811 64.0492 116.029 63.5519 116.042 63.0287V60.0903H108.059V63.0287C108.072 63.5519 108.289 64.0492 108.664 64.4146C109.04 64.78 109.543 64.9844 110.067 64.9842H114.033C114.558 64.9844 115.061 64.78 115.436 64.4146ZM112.735 63.7378C112.547 63.9259 112.291 64.0315 112.025 64.0315C111.893 64.0315 111.763 64.0056 111.641 63.9552C111.519 63.9048 111.408 63.8309 111.315 63.7378C111.222 63.6447 111.148 63.5341 111.097 63.4124C111.047 63.2908 111.021 63.1604 111.021 63.0287V62.0258C111.021 61.7598 111.127 61.5047 111.315 61.3167C111.503 61.1286 111.759 61.0229 112.025 61.0229C112.291 61.0229 112.547 61.1286 112.735 61.3167C112.923 61.5047 113.029 61.7598 113.029 62.0258V63.0287C113.029 63.2946 112.923 63.5497 112.735 63.7378Z" fill="#A9ABB6"/>
<path d="M144 79H80V81H144V79Z" fill="#E0E1E9" mask="url(#path-10-inside-4_773_70850)"/>
</svg>

<svg xmlns="http://www.w3.org/2000/svg" width="144" height="80" fill="none"><path fill="#fff" d="M0 0h144v80H0z"/><mask id="a" fill="#fff"><path d="M80 0h64v40H80V0Z"/></mask><path fill="#fff" d="M80 0h64v40H80V0Z"/><path fill="#191B23" d="M92.528 16.406v-1.133h6.755v1.133H96.56V24h-1.313v-7.594h-2.719ZM100.775 24v-8.727h1.317v3.792h4.351v-3.792h1.321V24h-1.321v-3.805h-4.351V24h-1.317Z"/><path fill="#E0E1E9" d="M144 39H80v2h64v-2Z" mask="url(#a)"/><mask id="b" fill="#fff"><path d="M0 0h80v40H0V0Z"/></mask><path fill="#fff" d="M0 0h80v40H0V0Z"/><path fill="#191B23" d="M12.528 16.406v-1.133h6.755v1.133H16.56V24h-1.313v-7.594h-2.719ZM20.775 24v-8.727h1.317v3.792h4.35v-3.792h1.322V24h-1.321v-3.805h-4.351V24h-1.317Z"/><path fill="#E0E1E9" d="M80 39H0v2h80v-2Z" mask="url(#b)"/><mask id="c" fill="#fff"><path d="M0 40h80v40H0V40Z"/></mask><path fill="#fff" d="M0 40h80v40H0V40Z"/><rect width="64" height="8" x="8" y="52" fill="#E0E1E9" fill-opacity=".8" rx="4"/><path fill="#E0E1E9" d="M80 79H0v2h80v-2Z" mask="url(#c)"/><mask id="d" fill="#fff"><path d="M80 40h64v40H80V40Z"/></mask><path fill="#fff" d="M80 40h64v40H80V40Z"/><path fill="#A9ABB6" fill-rule="evenodd" d="M116.042 57.011v1.073A2.01 2.01 0 0 1 118 60.03v3.009a4.007 4.007 0 0 1-1.194 2.804A4.02 4.02 0 0 1 113.983 67h-3.966a4.02 4.02 0 0 1-2.823-1.157A4.007 4.007 0 0 1 106 63.039V60.09a2.007 2.007 0 0 1 2.008-2.006v-1.073a4.019 4.019 0 0 1 8.034 0Zm-2.597-1.418a2.007 2.007 0 0 0-3.428 1.418v1.073h4.016v-1.073c0-.532-.211-1.042-.588-1.418Zm1.991 8.822c.375-.366.593-.863.606-1.386V60.09h-7.983v2.939a2.004 2.004 0 0 0 2.008 1.955h3.966c.525 0 1.028-.204 1.403-.57Zm-2.701-.677a1.005 1.005 0 0 1-1.714-.71v-1.002a1.003 1.003 0 0 1 2.008 0v1.003c0 .266-.106.52-.294.709Z" clip-rule="evenodd"/><path fill="#E0E1E9" d="M144 79H80v2h64v-2Z" mask="url(#d)"/></svg>
